X:91
T: Es steht ein Lind (Band 1), S. 255
N: P0866
O: Lothringen
S: PINCK, Louis: Verklingende Weisen, Bd 1, Metz 1928]
R: Untreue]
M: 3/4
L: 1/16
K: F
F2 | F2A2c4c4 | d2=B2c2
F2F2A2 | c4c4d2=B2 | c4z2
A2A2A2 | A2A2A2c2c2B2 | G2G2G4z2
FG | A2A2A2A2A2c2 | c2B2G2G2F2

